dist/svgs/core-ui-icons/brand/cib-matternet.svg

<svg xmlns="http://www.w3.org/2000/svg" width="32" height="32" viewBox="0 0 32 32">
  <path d="M25.64 5.573l-5.421 3.104v-6.245l-4.229-2.432-4.219 2.437v6.24l-5.396-3.115-4.235 2.437v4.885l5.401 3.115-5.405 3.125v4.875l4.224 2.443 5.389-3.12v6.245l4.229 2.432 4.229-2.443v-6.235l5.407 3.104 4.229-2.437v-4.864l-5.391-3.125 5.411-3.115v-4.885l-4.219-2.427zM26.136 10.145v-2.525l2.187 1.255v2.541l-2.183-1.271zM28.317 22.527l-8.099-4.672 2.203-1.261 5.896 3.407zM19.219 17.26l-2.203-1.26 8.604-4.969 2.187 1.261-8.593 4.968zM4.177 12.292l2.187-1.261 8.605 4.969-2.183 1.26zM11.765 17.855l-8.099 4.676v-2.531l5.912-3.407zM3.667 11.416v-2.536l2.188-1.26v2.531zM16.5 11.416v-9.348l2.188 1.249v6.828zM13.297 10.14v-6.817l2.187-1.255v9.339zM25.12 7.62v2.531l-8.609 4.98v-2.543zM15.484 12.584v2.531l-8.615-4.969v-2.525zM12.281 21.271l-5.917 3.407-2.187-1.261 8.099-4.676v2.531zM13.297 18.145l2.187-1.26v9.937l-2.187 1.276zM18.172 28.964l-2.183 1.276-2.187-1.271 2.187-1.261 2.183 1.261zM18.697 28.088l-2.197-1.265v-9.921l2.197 1.26v9.943zM27.807 23.416l-2.187 1.261-5.901-3.407v-2.531l8.099 4.676z"/>
</svg>

<svg xmlns="http://www.w3.org/2000/svg" viewBox="0 0 32 32"><path d="M25.64 5.573l-5.421 3.104V2.432L15.99 0l-4.219 2.437v6.24L6.375 5.562 2.14 7.999v4.885l5.401 3.115-5.405 3.125v4.875l4.224 2.443 5.389-3.12v6.245l4.229 2.432 4.229-2.443v-6.235l5.407 3.104 4.229-2.437v-4.864l-5.391-3.125 5.411-3.115V7.999l-4.219-2.427zm.496 4.572V7.62l2.187 1.255v2.541l-2.183-1.271zm2.181 12.382l-8.099-4.672 2.203-1.261 5.896 3.407zm-9.098-5.267L17.016 16l8.604-4.969 2.187 1.261-8.593 4.968zM4.177 12.292l2.187-1.261L14.969 16l-2.183 1.26zm7.588 5.563l-8.099 4.676V20l5.912-3.407zm-8.098-6.439V8.88l2.188-1.26v2.531zm12.833 0V2.068l2.188 1.249v6.828zm-3.203-1.276V3.323l2.187-1.255v9.339zM25.12 7.62v2.531l-8.609 4.98v-2.543zm-9.636 4.964v2.531l-8.615-4.969V7.621zm-3.203 8.687l-5.917 3.407-2.187-1.261 8.099-4.676v2.531zm1.016-3.126l2.187-1.26v9.937l-2.187 1.276zm4.875 10.819l-2.183 1.276-2.187-1.271 2.187-1.261 2.183 1.261zm.525-.876L16.5 26.823v-9.921l2.197 1.26v9.943zm9.11-4.672l-2.187 1.261-5.901-3.407v-2.531l8.099 4.676z"/></svg>
